!!!COM: Palestrina, Giovanni Perluigi da
!!!OPR: Ecce ego Joannes
!!!OTL: Credo
**kern	**kern	**kern	**kern	**kern	**kern
*Ibass	*Ibarit	*Itenor	*Itenor	*Icalto	*Icant
!Bassus	!Baritone	!Tenor 2	!Tenor 1	!Altus	!Cantus
*clefF4	*clefF4	*clefGv2	*clefGv2	*clefG2	*clefG2
*k[]	*k[]	*k[]	*k[]	*k[]	*k[]
*G:mix	*G:mix	*G:mix	*G:mix	*G:mix	*G:mix
*M4/2	*M4/2	*M4/2	*M4/2	*M4/2	*M4/2
=1	=1	=1	=1	=1	=1
0r	0d	0f#	0r	0a	0dd
=2	=2	=2	=2	=2	=2
0r	1G	1g	0r	1b	1dd
.	1d	1f#	.	1a	1dd
=3	=3	=3	=3	=3	=3
0r	1.c	4g	0r	2cc	1.ee
.	.	4f	.	.	.
.	.	4e	.	4c	.
.	.	4d	.	4d	.
.	.	2c	.	4e	.
.	.	.	.	4f	.
.	2B	2d	.	2g	2dd
=4	=4	=4	=4	=4	=4
0r	0A	1e	0r	2.a	0cc
.	.	.	.	8g	.
.	.	.	.	8f	.
.	.	1c	.	2e	.
.	.	.	.	2f#	.
=5	=5	=5	=5	=5	=5
1r	1G	1d	1r	1g	1b
1G	1B	1r	1d	1g	1dd
=6	=6	=6	=6	=6	=6
2C	2c	0r	2e	2g	2cc
2C	2c	.	2c	2g	2ee
1G	1B	.	1d	1g	2.dd
.	.	.	.	.	4ee
=7	=7	=7	=7	=7	=7
1.F	4c	0r	2A	1.a	1ff
.	4B	.	.	.	.
.	4A	.	4F	.	.
.	4G	.	4G	.	.
.	2F	.	4A	.	2cc
.	.	.	4B	.	.
2E	2G	.	2c	2g	2ee
=8	=8	=8	=8	=8	=8
0D	1A	0r	2.d	1f	0ff
.	.	.	8c	.	.
.	.	.	8B	.	.
.	1F	.	2A	1d	.
.	.	.	2B	.	.
=9	=9	=9	=9	=9	=9
2.C	2G	2r	2c	1e	1ee
.	1c	1e	1g	.	.
4D	.	.	.	.	.
4E	.	.	.	1r	1r
4F	.	.	.	.	.
2G	2B	2d	2g	.	.
=10	=10	=10	=10	=10	=10
1C	1c	1e	1g	0r	0r
1r	2B	2d	2g	.	.
.	2A	2c	2f	.	.
=11	=11	=11	=11	=11	=11
0r	2G	2B	2e	2r	1r
.	2F	2A	2d	1a	.
.	1E	1B	1e	.	2r
.	.	.	.	2g#	[2ee
=12	=12	=12	=12	=12	=12
0r	0r	2r	1f	2.a	2ee]
.	.	1a	.	.	2dd
.	.	.	.	4b	.
.	.	.	1e	2cc	[1ee
.	.	2g#	.	2b	.
=13	=13	=13	=13	=13	=13
0r	0r	2a	0r	4cc	2ee]
.	.	.	.	4b	.
.	.	2d	.	4a	2dd
.	.	.	.	4g	.
.	.	2f	.	2a	2cc
.	.	2g	.	[2g	2b
=14	=14	=14	=14	=14	=14
1r	1r	1d	1r	2g]	1a
.	.	.	.	2f#	.
2r	2r	2r	2r	1g	1b
[2G	[2B	[2g	[2d	.	.
=15	=15	=15	=15	=15	=15
2G]	2B]	2g]	2d]	2.b	2.dd
2G	2B	2g	2d	.	.
.	.	.	.	4b	4dd
2G	2B	2g	2d	2b	2dd
2G	2d	2g	2G	2b	2dd
=16	=16	=16	=16	=16	=16
1.C	1.c	1.e	1.g	2cc	1.ee
.	.	.	.	2c	.
.	.	.	.	4e	.
.	.	.	.	4f	.
2C	2c	2c	2g	4g	2ee
.	.	.	.	4a	.
=17	=17	=17	=17	=17	=17
1G	1B	1d	2g	4b	0dd
.	.	.	.	4cc	.
.	.	.	2.d	2b	.
[1D	[1d	2.f	.	[1a	.
.	.	.	4e	.	.
.	.	.	4f	.	.
.	.	4e	4g	.	.
=18	=18	=18	=18	=18	=18
1D]	1d]	1d	2a	1a]	1ff
.	.	.	1A	.	.
1A	1c#	1e	.	1a	1ee
.	.	.	4a	.	.
.	.	.	4g	.	.
=19	=19	=19	=19	=19	=19
0D	1d	4a	4f	0a	0dd
.	.	4g	4e	.	.
.	.	4f	4d	.	.
.	.	4e	4c#	.	.
.	[1A	1f	1d	.	.
=20	=20	=20	=20	=20	=20
2AA	1A]	2e	2c#	2a	0ee
2.A	.	2.e	2.c#	2.a	.
.	1r	.	.	.	.
4A	.	4e	4c#	4a	.
2A	.	2e	2c#	2a	.
=21	=21	=21	=21	=21	=21
2D	0r	2f	2d	2a	0r
2G	.	2g	2d	2b	.
2F	.	2a	1f	2.cc	.
4F	.	4A	.	.	.
4G	.	4B	.	4b	.
=22	=22	=22	=22	=22	=22
4A	0r	4c	1e	2a	0r
4B	.	4d	.	.	.
2c	.	1e	.	2g	.
2d	.	.	2f	2f	.
2B-	.	[2d	2g	4e	.
.	.	.	.	4d	.
=23	=23	=23	=23	=23	=23
1A	1r	2d]	1a	2e	1r
.	.	2c#	.	2e	.
1D	2r	1d	2r	2f	2r
.	[2d	.	[2f	[2a	[2dd
=24	=24	=24	=24	=24	=24
0r	2d]	0r	2f]	2a]	2dd]
.	2d	.	2f	2a	2dd
.	2A	.	2e	2a	2cc#
.	2d	.	2f	2a	2dd
=25	=25	=25	=25	=25	=25
1r	1c	1r	1g	1cc	1ee
2r	2G	2r	1g	2b	1dd
[2G	[2B	[2d	.	[2g	.
=26	=26	=26	=26	=26	=26
2G]	2B]	2d]	0r	2g]	0r
2G	2B	2d	.	2g	.
2D	2A	2d	.	2f#	.
2G	2B	2d	.	2g	.
=27	=27	=27	=27	=27	=27
1F	2c	2f	0r	2.a	0r
.	4A	4c	.	.	.
.	4B	4d	.	8g	.
.	.	.	.	8a	.
2.C	4c	4e	.	2g	.
.	4d	4f	.	.	.
.	[2e	[2g	.	4c	.
4BB	.	.	.	4d	.
=28	=28	=28	=28	=28	=28
4C	4e]	4g]	0r	4e	0r
4D	4d	4f	.	4f	.
4E	1c	1e	.	4g	.
4F	.	.	.	4a	.
2G	.	.	.	2g	.
2G	2B	2d	.	2g	.
=29	=29	=29	=29	=29	=29
1C	2c	2e	2r	1g	2r
.	2c	2g	2e	.	2ee
1r	2c	2g	2c	1r	2ee
.	2B	2g	2d	.	2dd
=30	=30	=30	=30	=30	=30
1r	1A	1a	2e	1r	1cc
.	.	.	2f#	.	.
2r	2G	1d	2g	2r	2b
2G	2B	.	2d	2g	2b
=31	=31	=31	=31	=31	=31
2G	2B	0r	2d	2g	2dd
2F	2A	.	2d	2a	2dd
2E	2B	.	2G	2g	2ee
2E	2c#	.	2G	2g	2ee
=32	=32	=32	=32	=32	=32
1D	2d	2r	1A	1f	2a
.	1d	1f	.	.	1a
1r	.	.	1r	2d	.
.	2c	2e	.	2e	2a
=33	=33	=33	=33	=33	=33
1r	1B-	1d	1r	2f	1dd
.	.	.	.	2g	.
2r	1A	2e	2r	2a	2cc
2A	.	4c	2e	2a	2ee
.	.	4d	.	.	.
=34	=34	=34	=34	=34	=34
2A	0r	4e	1e	2cc	2a
.	.	4f	.	.	.
2G	.	2g	.	2.b	2b
1F	.	2a	1A	.	2cc
.	.	.	.	4a	.
.	.	2A	.	[2a	2dd
=35	=35	=35	=35	=35	=35
1E	0r	1e	1B	2a]	[0ee
.	.	.	.	2g#	.
2r	.	1c	2A	2a	.
[2A	.	.	[2e	[2cc	.
=36	=36	=36	=36	=36	=36
2A]	0r	2A	2e]	2cc]	1ee]
2G#	.	2B	2e	2b	.
2A	.	2c	2e	2a	1r
2F	.	2A	2d	2a	.
=37	=37	=37	=37	=37	=37
1E	1r	2B	1e	1g	1r
.	.	2c#	.	.	.
1D	2r	1d	1A	1f	2r
.	[2d	.	.	.	[2a
=38	=38	=38	=38	=38	=38
0r	2d]	2f	0r	2d	2a]
.	2c#	2e	.	2A	2a
.	2d	2f	.	2.d	2a
.	2B	2d	.	.	2g
.	.	.	.	4d	.
=39	=39	=39	=39	=39	=39
0r	2A	2c	0r	2e	2a
.	2G	2d	.	1g	2b
.	1A	1c	.	.	1cc
.	.	.	.	2f#	.
=40	=40	=40	=40	=40	=40
0r	1G	0d	2r	2g	2b
.	.	.	1g	1b	1dd
.	1r	.	.	.	.
.	.	.	2f#	2a	2dd
=41	=41	=41	=41	=41	=41
0r	0r	2r	2g	2b	2dd
.	.	2g	2e	2g	2cc
.	.	2f#	2d	2a	2dd
.	.	2g	[2c	[2cc	[2ee
=42	=42	=42	=42	=42	=42
0r	0r	2e	2c]	2cc]	4ee]
.	.	.	.	.	4dd
.	.	2f	2F	2a	1cc
.	.	2d	1G	[1g	.
.	.	2d	.	.	2b
=43	=43	=43	=43	=43	=43
1C	2r	2e	2r	1g]	1cc
.	2c	2e	2g	.	.
2F	2c	2f	2a	1r	1r
2G	2B	2d	2g	.	.
=44	=44	=44	=44	=44	=44
2C	2c	2e	1g	0r	0r
1c	1e	4c	.	.	.
.	.	4d	.	.	.
.	.	4e	2c	.	.
.	.	4f	.	.	.
2B	2d	[2g	2d	.	.
=45	=45	=45	=45	=45	=45
1A	1c	2g]	2e	1r	1r
.	.	2f#	4d	.	.
.	.	.	4c	.	.
1G	1d	2g	2B	2r	2r
.	.	2g	2G	2b	2dd
=46	=46	=46	=46	=46	=46
0r	0r	2g	2c	2cc	2ee
.	.	2f#	2d	2a	2dd
.	.	2g	2G	2b	2dd
.	.	[2c	[2g	[2cc	[2ee
=47	=47	=47	=47	=47	=47
0r	0r	2c]	2g]	2cc]	2ee]
.	.	2d	2f	2a	2dd
.	.	1A	1e	1a	1cc#
=48	=48	=48	=48	=48	=48
1D	0r	1d	2f#	2a	0dd
.	.	.	2f#	2a	.
1G	.	2r	[1g	[1b	.
.	.	2d	.	.	.
=49	=49	=49	=49	=49	=49
1E	1G	1g	2g]	2b]	0r
.	.	.	2.e	1g	.
1C	1c	1e	.	.	.
.	.	.	4d	.	.
.	.	.	4c	2e	.
.	.	.	4B	.	.
=50	=50	=50	=50	=50	=50
1F	2c	2c	1A	4a	2r
.	.	.	.	4g	.
.	2A	2.c	.	4f	2cc
.	.	.	.	4e	.
1D	1F	.	2r	4f	1ff
.	.	8B	.	4e	.
.	.	8A	.	.	.
.	.	2B	2d	2d	.
=51	=51	=51	=51	=51	=51
0C	2G	1c	1g	1e	2ee
.	2G	.	.	.	1gg
.	1c	2r	1e	2r	.
.	.	2e	.	2g	[2ee
=52	=52	=52	=52	=52	=52
0r	1A	2e	1c	1cc	4ee]
.	.	.	.	.	4dd
.	.	1A	.	.	4ee
.	.	.	.	.	4cc
.	1F	.	2.f	2a	4dd
.	.	.	.	.	4cc
.	.	2A	.	2a	[2cc
.	.	.	4e	.	.
=53	=53	=53	=53	=53	=53
0r	1G	4B	1d	1g	2cc]
.	.	4G	.	.	.
.	.	2g	.	.	2b
.	1C	1e	1c	1g	1cc
=54	=54	=54	=54	=54	=54
1r	1r	1r	1r	1r	1r
[1C	[1c	[1e	[1g	[1cc	[1ee
=55	=55	=55	=55	=55	=55
1C]	1c]	1e]	1g]	1cc]	1ee]
1E	[1G	[1g	2.e	1b	1ee
.	.	.	8d	.	.
.	.	.	8c	.	.
=56	=56	=56	=56	=56	=56
1G	2G]	2g]	2B	1b	1dd
.	2B	1d	2G	.	.
2.D	1d	.	2A	1a	[1ff
.	.	[2f	2d	.	.
4E	.	.	.	.	.
=57	=57	=57	=57	=57	=57
1F	1A	2f]	2c	1a	1ff]
.	.	2c	4F	.	.
.	.	.	4G	.	.
1F	[1c	2.c	4A	1a	1ff
.	.	.	4B	.	.
.	.	.	[2c	.	.
.	.	4d	.	.	.
=58	=58	=58	=58	=58	=58
0C	1c]	4e	4c]	1g	1ee
.	.	4f	4d	.	.
.	.	2g	4e	.	.
.	.	.	4f	.	.
.	2r	1e	2g	2r	2r
.	2c	.	2g	2cc	2ee
=59	=59	=59	=59	=59	=59
0r	1c	0r	1g	1cc	1ee
.	2F	.	2a	2cc	2ff
.	2G	.	[2g	2b-	2dd
=60	=60	=60	=60	=60	=60
0r	2.A	0r	2g]	1a	0cc
.	.	.	1f	.	.
.	4B	.	.	.	.
.	1c	.	.	1g	.
.	.	.	2e	.	.
=61	=61	=61	=61	=61	=61
2r	1F	2r	2f	1a	2cc
1F	.	1a	1f	.	1cc
.	1r	.	.	1r	.
2F	.	2a	2f	.	2cc
=62	=62	=62	=62	=62	=62
1c	0r	2g	1e	0r	1cc
.	.	1a	.	.	.
1d	.	.	1f#	.	1a
.	.	[2d	.	.	.
=63	=63	=63	=63	=63	=63
1G	0r	4d]	2.g	0r	1b-
.	.	8e	.	.	.
.	.	8f	.	.	.
.	.	1g	.	.	.
.	.	.	4f	.	.
1G	.	.	2e	.	1b-
.	.	2f	[2d	.	.
=64	=64	=64	=64	=64	=64
0A	1r	0e	2d]	0r	0a
.	.	.	4c#	.	.
.	.	.	4B	.	.
.	[1A	.	1c#	.	.
=65	=65	=65	=65	=65	=65
0D	1A]	0f#	0d	0a	1r
.	[1d	.	.	.	1a
=66	=66	=66	=66	=66	=66
0G	1d]	0g	2.B	0d	2.b
.	.	.	4A	.	4cc
.	[1B	.	4G	.	1dd
.	.	.	4A	.	.
.	.	.	4B	.	.
.	.	.	4c	.	.
=67	=67	=67	=67	=67	=67
1G	1B]	2g	2d	1d	1dd
.	.	4g	1G	.	.
.	.	4f	.	.	.
[1C	1c	4e	.	[1g	[1ee
.	.	4d	.	.	.
.	.	4c	[2g	.	.
.	.	4B	.	.	.
=68	=68	=68	=68	=68	=68
1C]	0G	1c	4g]	1g]	1ee]
.	.	.	4f	.	.
.	.	.	4e	.	.
.	.	.	4d	.	.
1C	.	1c	2e	1g	1cc
.	.	.	2e	.	.
=69	=69	=69	=69	=69	=69
0G	0G	0B	0d	0g	0dd
*	*	*	*	*-	*-
!! Crucifixus
*Itenor	*Icalto	*Icalto	*Icant
!Tenor	!Altus 2	!Altus 1	!Cantus
*clefGv2	*clefG2	*clefG2	*clefG2
*k[]	*k[]	*k[]	*k[]
*G:mix	*G:mix	*G:mix	*G:mix
*M4/2	*M4/2	*M4/2	*M4/2
=70	=70	=70	=70
0r	0r	0d	0dd
=71	=71	=71	=71
0r	0r	1g	1b
.	.	1a	1cc
=72	=72	=72	=72
0r	0r	1b	1dd
.	.	2.cc	2.ee
.	.	4cc	4ee
=73	=73	=73	=73
0r	0r	2cc	2ee
.	.	2b	2dd
.	.	2.a	2ff
.	.	.	[2ee
.	.	4g	.
=74	=74	=74	=74
0r	0r	4e	2ee]
.	.	4f	.
.	.	1g	4dd
.	.	.	4cc
.	.	.	2b
.	.	2f	[2dd
=75	=75	=75	=75
0G	0g	2.e	2dd]
.	.	.	1cc
.	.	8d	.
.	.	8c	.
.	.	1d	.
.	.	.	2b
=76	=76	=76	=76
1c	1e	1c	2.cc
.	.	.	4b
1d	1f	1r	1a
=77	=77	=77	=77
1e	1g	0r	1r
2.f	2.a	.	2.cc
4f	4a	.	4cc
=78	=78	=78	=78
2f	2a	2r	2cc
2e	2g	1g	2cc
2.d	2b-	.	[1dd
.	[2a	2f	.
4c	.	.	.
=79	=79	=79	=79
2B-	4a]	2d	2dd]
.	4g	.	.
4A	1g	2e	4cc
4G	.	.	4b
1A	.	1c	1cc
.	2f#	.	.
=80	=80	=80	=80
0G	2g	1d	2b
.	2d	.	2dd
.	2.g	1r	2.b
.	4a	.	4cc
=81	=81	=81	=81
1r	2b	1r	2dd
.	2cc	.	2ee
2r	1b	2r	4dd
.	.	.	8ee
.	.	.	8ff
2G	.	2g	[2gg
=82	=82	=82	=82
2.c	2g	2.e	4gg]
.	.	.	4ff
.	2cc	.	1ee
4d	.	4f	.
2e	2b	2g	.
2f	[2a	2a	2dd
=83	=83	=83	=83
1e	2a]	1b	1ee
.	2g#	.	.
2A	1a	2cc	2r
[2a	.	[2cc	[2ee
=84	=84	=84	=84
2a]	0r	2cc]	2ee]
2g	.	2b	2ee
2f	.	2a	2dd
2e	.	2g	2ee
=85	=85	=85	=85
2f	2r	2a	2cc
2d	1a	2f	2dd
1c	.	1cc	2ee
.	2g	.	2ee
=86	=86	=86	=86
2d	2f	2.a	2dd
2c#	2e	.	2.ee
.	.	4a	.
2d	2f	2a	.
.	.	.	4dd
2B-	2d	2g	[2dd
=87	=87	=87	=87
1A	1e	0a	2dd]
.	.	.	2cc#
1d	1f#	.	2dd
.	.	.	2a
=88	=88	=88	=88
2r	1g	2r	2.dd
2G	.	2b	.
.	.	.	4dd
2.g	1r	2.b	2dd
.	.	.	2ee
4g	.	4b	.
=89	=89	=89	=89
2g	0r	2b	1.dd
2f#	.	2a	.
2g	.	2b	.
2e	.	2g	2cc
=90	=90	=90	=90
2f	1r	2a	1dd
2.g	.	2b	.
.	2r	2.e	2.gg
4f	.	.	.
4e	2g	.	.
4d	.	4f	4ff
=91	=91	=91	=91
1c	2.cc	0g	2.ee
.	4cc	.	8dd
.	.	.	8cc
1G	2cc	.	1dd
.	2b	.	.
=92	=92	=92	=92
0r	2cc	0r	1ee
.	2a	.	.
.	2b	.	2.gg
.	[2cc	.	.
.	.	.	4ff
=93	=93	=93	=93
0r	4cc]	0r	4ee
.	4b	.	4dd
.	4a	.	4cc
.	4g	.	4b
.	1f	.	4a
.	.	.	4g
.	.	.	2a
=94	=94	=94	=94
1c	2e	2r	2g
.	2e	2g	2cc
1F	1a	1f	1cc
=95	=95	=95	=95
2c	2g	2e	2cc
2G	2g	2d	2b
4A	[1e	4c	1cc
4B	.	4d	.
4c	.	4e	.
4d	.	4f	.
=96	=96	=96	=96
4e	1e]	4g	2.b
4f	.	4a	.
1g	.	4b	.
.	.	4g	4cc
.	1d	1a	1dd
2f#	.	.	.
=97	=97	=97	=97
1g	0r	2b	2r
.	.	2b	2g
1r	.	2cc	2a
.	.	2g	2b
=98	=98	=98	=98
0r	0r	2a	2cc
.	.	2b	2dd
.	.	[1cc	4ee
.	.	.	4dd
.	.	.	4ee
.	.	.	4ff
=99	=99	=99	=99
1e	0r	2cc]	4gg
.	.	.	4ff
.	.	2b	4ee
.	.	.	4dd
2f	.	2a	2.cc
2c	.	2g	.
.	.	.	8dd
.	.	.	8ee
=100	=100	=100	=100
2d	0r	8f	2ff
.	.	8g	.
.	.	8a	.
.	.	8b	.
2e	.	1cc	2ee
2f	.	.	1dd
2g	.	2b	.
=101	=101	=101	=101
4c	2r	1cc	2r
4d	.	.	.
4e	2cc	.	2ee
4f	.	.	.
1g	2b	1r	2dd
.	2g	.	2b
=102	=102	=102	=102
2r	2.a	0r	2.cc
2f	.	.	.
.	4f	.	4a
2e	2g	.	2b
2c	[2a	.	[2cc
=103	=103	=103	=103
2.e	4a]	0r	4cc]
.	4g	.	4b
.	1g	.	4b
4e	.	.	8a
.	.	.	8g
1d	.	.	1a
.	2f#	.	.
=104	=104	=104	=104
2r	1g	2r	4g
.	.	.	4a
2e	.	2g	4b
.	.	.	4cc
2d	2r	2f	1dd
2B	2g	2d	.
=105	=105	=105	=105
2.c	2.g	2.e	0r
4A	4f	4c	.
2B	2g	2d	.
[2c	[2a	[2e	.
=106	=106	=106	=106
4c]	4a]	4e]	0r
4B	4g	4d	.
4B	4g	1g	.
8A	8a	.	.
8G	8b	.	.
1A	1cc	.	.
.	.	2f#	.
=107	=107	=107	=107
1G	2b	1g	2r
.	2b	.	2dd
1r	2.cc	1r	2.ee
.	4b	.	4dd
=108	=108	=108	=108
1r	2a	0r	2cc
.	2g	.	2b
2r	2e	.	2cc
2d	2f#	.	2a
=109	=109	=109	=109
2.e	1g	2r	1g
.	.	2g	.
4d	.	.	.
2c	1r	2a	1r
2B	.	2g	.
=110	=110	=110	=110
2c	1r	2e	1r
2A	.	2f#	.
1G	2r	2g	2r
.	2b	2g	2dd
=111	=111	=111	=111
0r	2.cc	1c	2.ee
.	4b	.	4dd
.	2a	1r	2cc
.	2g	.	2b
=112	=112	=112	=112
2r	2e	2r	2cc
2d	2f#	2a	2a
2.e	2.g	2.cc	1g
4d	4f	4b	.
=113	=113	=113	=113
2c	2e	2a	1r
2B	2d	2g	.
2c	2e	2g	2r
2A	2c	2f#	[2cc
=114	=114	=114	=114
1G	2d	0g	2cc]
.	1d	.	4b
.	.	.	4a
1G	.	.	1b
.	2e	.	.
=115	=115	=115	=115
2A	2e	1c	4cc
.	.	.	4b
2A	1f	.	4a
.	.	.	4g
2B-	.	2d	2f
2B-	4e	2d	2g
.	4d	.	.
=116	=116	=116	=116
0A	2c#	2e	1.a
.	1d	2f	.
.	.	1e	.
.	2c#	.	2a
=117	=117	=117	=117
1r	1d	1f#	1a
[1d	[1a	[1f#	[1dd
=118	=118	=118	=118
2d]	2a]	2f#]	2dd]
2d	2b	2f#	2dd
1c	1cc	1g	1ee
=119	=119	=119	=119
1G	2b	2g	2dd
.	2b	2g	2dd
1r	2cc	2c	2ee
.	2a	2d	2ff
=120	=120	=120	=120
0r	1g	4e	4gg
.	.	4d	4ff
.	.	4c	4ee
.	.	4d	4dd
.	1g	4e	4cc
.	.	4f	4dd
.	.	4g	4b
.	.	4e	4cc
=121	=121	=121	=121
1r	1r	4f	4a
.	.	4d	4b
.	.	2e	1cc
1G	2r	1d	.
.	2g	.	2b
=122	=122	=122	=122
2A	2c	0r	2cc
2B	2d	.	4b
.	.	.	4a
4c	4e	.	1g
4d	4d	.	.
4e	4c	.	.
4d	4d	.	.
=123	=123	=123	=123
4c	4e	2r	0r
4d	4f	.	.
4B	4g	2g	.
4c	4e	.	.
2A	2f#	2a	.
2G	[2g	2b	.
=124	=124	=124	=124
1A	2g]	1.cc	1r
.	2f#	.	.
1G	2g	.	2r
.	2g	2b	2dd
=125	=125	=125	=125
1r	2c	1a	2ee
.	2d	.	2ff
2r	4e	1g	4gg
.	4f	.	4ff
2G	4g	.	4ee
.	4f	.	4dd
=126	=126	=126	=126
2A	4e	2r	2cc
.	4f	.	.
2B	2d	1g	2dd
4c	2c	.	4ee
4B	.	.	4dd
4A	2e	[2a	4cc
4G	.	.	4b
=127	=127	=127	=127
2F	2f	2a]	2a
2G	2d	1g	2b
1A	1c	.	1cc
.	.	2f#	.
=128	=128	=128	=128
0G	0d	0g	0b
*-	*-	*-	*-
!! Et in Spiritum
**kern	**kern	**kern	**kern	**kern	**kern
*Ibass	*Ibarit	*Itenor	*Itenor	*Icalto	*Icant
!Bassus	!Baritone	!Tenor 2	!Tenor 1	!Altus	!Cantus
*clefF4	*clefF4	*clefGv2	*clefGv2	*clefG2	*clefG2
*k[]	*k[]	*k[]	*k[]	*k[]	*k[]
*G:mix	*G:mix	*G:mix	*G:mix	*G:mix	*G:mix
*M3/2	*M3/2	*M3/2	*M3/2	*M3/2	*M3/2
=129	=129	=129	=129	=129	=129
1r	1c	1g	1r	1cc	1ee
2r	2G	2g	2r	2b	2dd
=130	=130	=130	=130	=130	=130
1r	2.A	2.e	1r	2.a	2.cc#
.	4A	4e	.	4a	4cc#
2r	2A	2e	2r	2a	2cc#
=131	=131	=131	=131	=131	=131
1r	1d	1f#	1r	1a	1dd
2r	2G	2g	2r	2b	2dd
=132	=132	=132	=132	=132	=132
1r	2.c	2.g	1r	2.cc	2.ee
.	4c	4g	.	4cc	4ee
2r	2G	2g	2r	2b	2dd
=133	=133	=133	=133	=133	=133
1r	2.A	2.e	1r	2.a	2.cc
.	4A	4e	.	4a	4cc
2r	2F	2f	2r	2a	2cc
=134	=134	=134	=134	=134	=134
1r	2G	2d	1r	2g	2b
.	1D	1d	.	1f#	1a
2r	.	.	2r	.	.
=135	=135	=135	=135	=135	=135
2r	2G	2d	2r	2g	2b
2G	2r	2B	2d	2g	2r
2C	2r	2c	2e	2g	2r
=136	=136	=136	=136	=136	=136
1D	1r	1A	1d	1f#	1r
2G	2r	2B	2d	2g	2r
=137	=137	=137	=137	=137	=137
2.F	1r	2.c	2.f	2.a	1r
4F	.	4c	4f	4a	.
2C	2r	2c	2e	2g	2r
=138	=138	=138	=138	=138	=138
1D	1r	1A	1d	1f	1r
2C	2r	2c	2g	2e	2r
=139	=139	=139	=139	=139	=139
1G	1r	1B	1g	1d	1r
2C	2r	2c	2e	2g	2r
=140	=140	=140	=140	=140	=140
1r	1G	1r	1d	2r	1b
.	.	.	.	2g	.
2r	2G	2r	2d	2g	2b
=141	=141	=141	=141	=141	=141
1r	2c	1r	2e	2g	2cc
.	2A	.	2e	2a	2cc
2r	2G	2r	2g	2b	2dd
=142	=142	=142	=142	=142	=142
1r	2.c	1r	2.g	2.cc	2.ee
.	4c	.	4g	4cc	4ee
2r	2c	2r	2g	2cc	2ee
=143	=143	=143	=143	=143	=143
2.F	2.A	2.f	2.a	2.cc	2.ff
4F	4A	4f	4a	4cc	4ff
2F	2A	2a	2f	2cc	2ff
=144	=144	=144	=144	=144	=144
2F	2A	2a	2c	2f	2ff
1BB-	1B-	2f	2d	2f	1dd
.	.	2d	2B-	2g	.
=145	=145	=145	=145	=145	=145
2F	2A	2f	1c	2a	2cc
2r	1F	1a	.	1cc	1ff
2r	.	.	2r	.	.
=146	=146	=146	=146	=146	=146
1r	2.c	2.g	1r	2.cc	2.ee
.	4G	4g	.	4b	4dd
2r	2A	2e	2r	2a	2cc
=147	=147	=147	=147	=147	=147
1r	2c	2e	1r	2g	2cc
.	1G	1d	.	1g	1b
2r	.	.	2r	.	.
=148	=148	=148	=148	=148	=148
2r	2c	2e	2r	2g	2cc
2C	2c	2g	2e	2r	2r
2G	2B	2g	2d	2r	2r
=149	=149	=149	=149	=149	=149
1F	1c	1a	1f	1r	1r
2D	2d	2a	2f	2r	2r
=150	=150	=150	=150	=150	=150
1A	1c	1a	1e	1r	1r
2B	2B	2g	2d	2r	2r
=151	=151	=151	=151	=151	=151
2c	2A	1a	2e	1r	1r
2.d	2D	.	2f	.	.
.	[2E	[2g	[2e	2r	2r
4c	.	.	.	.	.
=152	=152	=152	=152	=152	=152
1c	4E]	1.g]	2e]	1r	1r
.	4F	.	.	.	.
.	1G	.	1d	.	.
2B	.	.	.	2r	2r
!! Et unam sanctam
*Ibass	*Ibarit	*Itenor	*Itenor	*Icalto	*Icant
!Bassus	!Baritone	!Tenor 2	!Tenor 1	!Altus	!Cantus
*clefF4	*clefF4	*clefGv2	*clefGv2	*clefG2	*clefG2
*k[]	*k[]	*k[]	*k[]	*k[]	*k[]
*G:mix	*G:mix	*G:mix	*G:mix	*G:mix	*G:mix
*M4/2	*M4/2	*M4/2	*M4/2	*M4/2	*M4/2
=153	=153	=153	=153	=153	=153
1c	2C	2e	1c	2r	2r
.	2c	2g	.	2cc	2ee
1r	2c	2g	1r	2cc	2ee
.	2c	2e	.	2cc	2gg
=154	=154	=154	=154	=154	=154
0r	1F	1a	0r	1cc	1ff
.	2c	2g	.	2cc	2ee
.	2G	2g	.	2b	2dd
=155	=155	=155	=155	=155	=155
1r	2.A	2e	1r	2.a	2.cc
.	.	2f#	.	.	.
.	4A	.	.	4a	4cc
2r	2G	1g	2r	2d	1b
2G	2G	.	2B	2d	.
=156	=156	=156	=156	=156	=156
2G	2B	0r	2d	2g	0r
2G	2B	.	2d	2g	.
2.C	2.c	.	2.e	2.g	.
4C	4c	.	4e	4g	.
=157	=157	=157	=157	=157	=157
2G	2B	0r	2d	2g	0r
2D	2A	.	2d	2f#	.
2.E	2.G	.	2B	2.g	.
.	.	.	2c#	.	.
4E	4G	.	.	4g	.
=158	=158	=158	=158	=158	=158
1D	2A	2r	1d	2f	2r
.	2d	2f	.	2a	2dd
1r	2.c	2g	1r	2cc	2.ee
.	.	2e	.	2g	.
.	4B	.	.	.	4dd
=159	=159	=159	=159	=159	=159
0r	2A	2f	0r	2a	2cc
.	2G	2g	.	2b	2b
.	2.F	2a	.	2.cc	2.a
.	.	[2f	.	.	.
.	4G	.	.	4b	4b
=160	=160	=160	=160	=160	=160
0r	2A	4f]	0r	2a	2cc
.	.	4e	.	.	.
.	2E	1e	.	2g	2b
.	1F	.	.	2cc	[1a
.	.	2d	.	4b	.
.	.	.	.	4a	.
=161	=161	=161	=161	=161	=161
1r	1E	1e	1r	2cc	2a]
.	.	.	.	2b	2g#
2.E	1r	2.e	2.B	2.g#	2.b
4E	.	4e	4B	4g#	4b
=162	=162	=162	=162	=162	=162
2E	0r	2e	2B	2g#	2b
2E	.	2e	2B	2g#	2b
1A	.	1e	1A	1a	1cc#
=163	=163	=163	=163	=163	=163
2D	0r	2f#	2A	2a	2dd
1G	.	1g	2B	1d	1b
.	.	.	2d	.	.
2E	.	2g	[2c	2e	2cc
=164	=164	=164	=164	=164	=164
1D	1r	2a	4c]	1f	1dd
.	.	.	8B	.	.
.	.	.	8A	.	.
.	.	2d	2B	.	.
1C	2r	2r	2c	2e	1ee
.	[2c	2g	[2e	2cc	.
=165	=165	=165	=165	=165	=165
0r	2c]	1a	2e]	2cc	0r
.	2d	.	1f	2.a	.
.	1B-	1d	.	.	.
.	.	.	.	4g	.
.	.	.	[2d	2g	.
=166	=166	=166	=166	=166	=166
1r	1A	1e	2d]	1a	1r
.	.	.	2c	.	.
2.G	1r	2.g	2.B	2.d	2.dd
4G	.	4g	4B	4d	4dd
=167	=167	=167	=167	=167	=167
2G	2.G	2g	2B	2d	2dd
2G	.	2g	2B	2d	2dd
.	4G	.	.	.	.
1C	2G	[1e	2.c	[1g	1ee
.	2G	.	.	.	.
.	.	.	4d	.	.
=168	=168	=168	=168	=168	=168
1C	1c	1e]	4e	1g]	0cc
.	.	.	4f	.	.
.	.	.	4g	.	.
.	.	.	4e	.	.
1F	1A	1c	[1f	[1a	.
=169	=169	=169	=169	=169	=169
2.D	2r	1d	2f]	1a]	1.ff
.	1d	.	2f	.	.
4E	.	.	.	.	.
4F	.	2A	2.a	2r	.
4G	.	.	.	.	.
2A	2c#	[2a	.	2e	2ee
.	.	.	4g	.	.
=170	=170	=170	=170	=170	=170
0D	1d	4a]	2f	1a	0dd
.	.	4g	.	.	.
.	.	4f	2d	.	.
.	.	4e	.	.	.
.	[1A	1d	1f	1a	.
=171	=171	=171	=171	=171	=171
1AA	1A]	2c#	2e	1a	1ee
.	.	2e	2A	.	.
1r	1r	1f	1d	1a	2r
.	.	.	.	.	2a
=172	=172	=172	=172	=172	=172
0r	0r	2.g	2G	1b	1dd
.	.	.	2g	.	.
.	.	4f	.	.	.
.	.	1e	4g	1b	2g
.	.	.	4f	.	.
.	.	.	4e	.	2gg
.	.	.	4d	.	.
=173	=173	=173	=173	=173	=173
0r	0r	2.e	1.c	2r	4gg
.	.	.	.	.	4ff
.	.	.	.	2cc	4ee
.	.	4f	.	.	4dd
.	.	2g	.	4cc	4ee
.	.	.	.	4b	4dd
.	.	[2a	2c	4a	4cc
.	.	.	.	4g	4b
=174	=174	=174	=174	=174	=174
0r	0r	2a]	1d	2f	2a
.	.	2f#	.	1a	2dd
.	.	1g	2.e	.	2b
.	.	.	.	[2g	2cc#
.	.	.	4e	.	.
=175	=175	=175	=175	=175	=175
1D	2r	2.a	1d	2g]	0dd
.	2A	.	.	2f#	.
.	.	4a	.	.	.
1G	1B	1g	1d	2g	.
.	.	.	.	2d	.
=176	=176	=176	=176	=176	=176
2C	2c	2r	1e	1g	0r
2c	2e	2c	.	.	.
4c	4e	1e	2g	2c	.
4B	4d	.	.	.	.
4A	4c	.	2a	2cc	.
4G	4B	.	.	.	.
=177	=177	=177	=177	=177	=177
1.F	1.A	1.f	4a	4cc	0r
.	.	.	4g	4b	.
.	.	.	4f	4a	.
.	.	.	4e	4g	.
.	.	.	2d	4a	.
.	.	.	.	4g	.
2F	2A	2a	2c	8a	.
.	.	.	.	8g	.
.	.	.	.	8f	.
.	.	.	.	8e	.
=178	=178	=178	=178	=178	=178
2G	4B	2g	2B	2d	1r
.	4G	.	.	.	.
2A	1c	2f	2A	2c	.
1G	.	2.g	2B	2d	2r
.	2B	.	[2G	2d	2dd
.	.	4g	.	.	.
=179	=179	=179	=179	=179	=179
1C	1c	2g	2G]	2c	1ee
.	.	2e	1c	2g	.
1F	1A	[1f	.	1a	2cc
.	.	.	2A	.	2cc
=180	=180	=180	=180	=180	=180
2D	1d	1f]	2A	2a	2ff
2D	.	.	2.d	2a	1dd
2.G	2B	2d	.	2g	.
.	.	.	4c	.	.
.	2G	2d	4B	2d	[2gg
4F	.	.	4A	.	.
=181	=181	=181	=181	=181	=181
4E	2B	2.g	1G	2.e	4gg]
4D	.	.	.	.	4ff
1C	2c	.	.	.	4ee
.	.	4f	.	4f	4dd
.	2.G	2e	1c	2g	2cc
2C	.	2e	.	2g	2cc
.	4A	.	.	.	.
=182	=182	=182	=182	=182	=182
1G	4B	2d	1.B	1g	0dd
.	4c	.	.	.	.
.	2.d	2G	.	.	.
2G	.	2.B	.	2d	.
.	4d	.	.	.	.
2G	2B	.	2G	[2g	.
.	.	4c	.	.	.
=183	=183	=183	=183	=183	=183
0D	0A	1d	2A	2g]	0dd
.	.	.	1d	4f#	.
.	.	.	.	4e	.
.	.	1d	.	1f#	.
.	.	.	2A	.	.
=184	=184	=184	=184	=184	=184
0G	0G	0d	0B	0g	0dd
==	==	==	==	==	==
*-	*-	*-	*-	*-	*-
!!!CDT: 1525/^1526/-1594/2/2
!!!OCY: Italia
!!!AGN: Mass (Parody)
!!!AST: renaissance, vocal
!!!ASW: Motet (Unidentified)
!!!PWK: Masses, Book 12
!!!RNB: Cadence finals: D
!!!YOR: Le Opere Complete, v. 29, p. 197
!!!YOO: Rome, Italy: Fratelli Scalera
!!!END: 1992//
!!!EED: John Miller
!!!YEC: Copyright 2000, John Miller
!!!YEN: United States of America
!!!YEM: Rights to all derivative electronic formats reserved.
!!!YEM: Refer to licensing agreement for further details.
!!!YEM: This file must be accompanied by the licensing agreement.
!!!YEM: A copy of the licensing agreement may be found at http://www.music-cog.ohio-state.edu/HumdrumDatabases/Palestrina/license.txt
!!!EMD: converted to Humdrum by Bret Aarden
